X: 2996
T: Battering Ram, The
R: jig
M: 6/8
K: Gmajor
|:B|dBG BAG|dBA G2 B|dBG AGE|GED D2 B|
dBG BAG|BdB BAG|~A3 BAB|GED D2:|
|:B|deg aga|bge edB|deg aga|bge e2 a|
bag age|~g3 ege|dBG AGE|GED D2:|
|:A|B2 G AGA|BGE DGA|BAG AGE|GED D2 A|
B2 G AGA|BdB BAG|~A3 BAB|GED D2:|

